X:16
T: WEN HYR EN PUT MIT BONEN STEIT
N: E1012
O: Europa, Mitteleuropa, Deutschland, Niederdeutsch
R: Tanz - Lied
M: 2/4
L: 1/8
K: G
D | DGGG | FAA
A | cAGA | B2z
B | cAAA | BGG
G | BDEF | G2z
B | Acce | edd
B | Acce | d3
B | cAAA | BGG
G | BDEF | G2z

@@@ Tune index: 4700
